X:1
T:Title
%%score { ( 1 3 ) | ( 2 4 ) }
L:1/8
M:4/4
K:C
V:1 treble nm="Grand Piano"
V:3 treble 
V:2 bass 
V:4 bass 
V:1
 z4 z2[Q:1/4=100] [CE][DF] | [EG]2 [EG]2 [EG]2 [Ge]2 | A2 z2 z4 | AB [Gc]2 [DF]2 [CE]2 | %4
[M:3/4] [B,D]6 |[M:1/4] [CE][DF] |[M:4/4] [EG]2 [EG]2 [EG]2 [Ge]2 | A2 z2 z4 | %8
 [D^FB]2 F-[FB] [Fc]2 [CDF]2 |[M:3/4] [B,DG]6 |[M:1/4] G2 |[M:4/4] G3 G ABcd | %12
 [Ee]2 [Ec]2 [CEG]2 E2 | A3 E B3 E |[M:3/4] c6 |[M:1/4] c2 |[M:4/4] c3 B dcBA | %17
 [EG]2 [DF]2 [CE]2 [EG]2 | AB [Gc]2 [Fd]2 B2 |[M:3/4] [Ec]6 |] %20
V:2
 z4 z2 [C,G,]2 | [C,C]2 [C,C]2 [C,C]2 [C,C]2 | [F,C]2 [F,C]2 [C,C]2 [C,C]2 | %3
 [F,CF]2 [E,C]2 [B,,G,]2 [C,G,]2 |[M:3/4] [G,,G,]6 |[M:1/4] [C,G,]2 | %6
[M:4/4] [C,C]2 [C,C]2 [C,C]2 [C,C]2 | z2 [F,C]2 z4 | D,2 z B, [D,A,]2 D,2 |[M:3/4] G,,6 | %10
[M:1/4] G,2 |[M:4/4][K:treble] [G,B,F]3 [G,B,F] [G,B,F]2 [G,B,F]2 | [C,C]2 [C,G,]2 C,2 E,2 | %13
 A,3 E, B,3 E, |[M:3/4][K:treble] C6 |[M:1/4] C2 | %16
[M:4/4] [F,A,F]3 [F,^G,F] [F,A,F]2[K:bass] [F,A,F]2 | [C,C]2 [C,G,]2 [C,G,]2 [C,C]2 | %18
 [F,CF]2 [E,C]2 [D,A,]2 [G,D]2 |[M:3/4] [C,G,]6 |] %20
V:3
 x8 | x8 | dc[GB][FA] [EG]2 [EG]2 | x8 |[M:3/4] x6 |[M:1/4] x2 |[M:4/4] x8 | %7
 dc[GB]A [CEG]2 [EGc]2 | z2 .[CA]2 z4 |[M:3/4] x6 |[M:1/4] x2 |[M:4/4] x8 | x8 | x8 |[M:3/4] x6 | %15
[M:1/4] x2 |[M:4/4] x8 | x8 | x8 |[M:3/4] x6 |] %20
V:4
 x8 | x8 | x8 | x8 |[M:3/4] x6 |[M:1/4] x2 |[M:4/4] x8 | [F,C]2 z F C,2 C,2 | z2 D,2 z4 | %9
[M:3/4] x6 |[M:1/4] x2 |[M:4/4][K:treble] x8 | x8 | x8 |[M:3/4][K:treble] x6 |[M:1/4] x2 | %16
[M:4/4] x6[K:bass] x2 | x8 | x8 |[M:3/4] x6 |] %20

